!!!COM: Bach, Johann Sebastian
!!!OTL: Fuga
!!!OMV: 2
!!!SCT: BWV 535
!!!SCA: Thematisches-systematisches Verzeichnis der musikalischen Werke von Johann Sebastian Bach (Schmieder 1990)
**kern	**kern	**kern	**kern
*MM60	*MM60	*MM60	*MM60
*k[b-e-]	*k[b-e-]	*k[b-e-]	*k[b-e-]
*M4/4	*M4/4	*M4/4	*M4/4
*tb32	*tb32	*tb32	*tb32
=1	=1	=1	=1
1r	1r	1r	4g
.	.	.	4a
.	.	.	4b-
.	.	.	4g
=2	=2	=2	=2
1r	1r	1r	8ee-
.	.	.	8ee-
.	.	.	8ee-
.	.	.	8ee-
.	.	.	4a
.	.	.	8r
.	.	.	8a
=3	=3	=3	=3
1r	1r	1r	8dd
.	.	.	8dd
.	.	.	8dd
.	.	.	8dd
.	.	.	4g
.	.	.	8r
.	.	.	8ee-
=4	=4	=4	=4
1r	1r	1r	16dd
.	.	.	16ee-
.	.	.	16dd
.	.	.	16ee-
.	.	.	16dd
.	.	.	16ee-
.	.	.	16dd
.	.	.	16ee-
.	.	.	16cc
.	.	.	16dd
.	.	.	16cc
.	.	.	16dd
.	.	.	16cc
.	.	.	16dd
.	.	.	16cc
.	.	.	16dd
=5	=5	=5	=5
1r	1r	4d	4b-
.	.	4e	8.a
.	.	.	16g
.	.	4f	4a
.	.	4d	[4ff
=6	=6	=6	=6
1r	1r	8b-	8ff]
.	.	8b-	16ee
.	.	.	16dd
.	.	8b-	[4gg
.	.	8b-	.
.	.	4e	16gg]
.	.	.	16aa
.	.	.	16ff
.	.	.	16gg
.	.	8r	16ee
.	.	.	16ff
.	.	8e	16dd
.	.	.	16ee
=7	=7	=7	=7
1r	1r	8a	[4cc#
.	.	8a	.
.	.	8a	16cc#]
.	.	.	16ee
.	.	8a	16dd
.	.	.	16ee
.	.	4d	16ff
.	.	.	16gg
.	.	.	16ee
.	.	.	16ff
.	.	8r	8dd
.	.	8b-	[8gg
=8	=8	=8	=8
1r	1r	16a	8gg]
.	.	16b-	.
.	.	16a	8cc
.	.	16b-	.
.	.	16a	[4ff
.	.	16b-	.
.	.	16a	.
.	.	16b-	.
.	.	16g	8ff]
.	.	16a	.
.	.	16g	8bb-
.	.	16a	.
.	.	16g	[4ee
.	.	16a	.
.	.	16g	.
.	.	16a	.
=9	=9	=9	=9
1r	1r	4f	8ee]
.	.	.	8a
.	.	8.e	[4dd
.	.	16d	.
.	.	4e	16dd]
.	.	.	16ff
.	.	.	16ee
.	.	.	16gg
.	.	4a	8.cc#M
.	.	.	16dd
=10	=10	=10	=10
1r	1r	8d	4dd
.	.	[8b-	.
.	.	8b-]	[4cc
.	.	16a	.
.	.	16g	.
.	.	4f#	8cc]
.	.	.	16b-
.	.	.	16a
.	.	[4g	16b-
.	.	.	16ee-
.	.	.	16dd
.	.	.	16ee-
=11	=11	=11	=11
1r	2r	8g]	8a
.	.	16f#	[8dd
.	.	16e	.
.	.	4f#	16dd]
.	.	.	16ee-
.	.	.	16cc
.	.	.	16dd
.	4G	4g	16b-
.	.	.	16cc
.	.	.	16a
.	.	.	16b-
.	4A	8.f	16cc
.	.	.	16dd
.	.	.	16b-
.	.	16e-	16cc
=12	=12	=12	=12
1r	4B-	4d	16dd
.	.	.	16ee-
.	.	.	16cc
.	.	.	16dd
.	4G	[4b-	16b-
.	.	.	16dd
.	.	.	16ee-
.	.	.	16ff
.	8e-	8b-]	[4gg
.	8e-	16a	.
.	.	16g	.
.	8e-	[4cc	16gg]
.	.	.	16ff
.	8e-	.	16ee-
.	.	.	16dd
=13	=13	=13	=13
1r	4A	16cc]	4cc
.	.	16dd	.
.	.	16b-	.
.	.	16cc	.
.	8r	16a	4r
.	.	16b-	.
.	8A	16g	.
.	.	16a	.
.	8d	16f	[4ff
.	.	16a	.
.	8d	16g	.
.	.	16a	.
.	8d	[4b-	16ff]
.	.	.	16ee-
.	8d	.	16dd
.	.	.	16cc
=14	=14	=14	=14
1r	4G	16b-]	4b-
.	.	16cc	.
.	.	16a	.
.	.	16b-	.
.	8r	8g	4r
.	8e-	[8cc	.
.	16d	8cc]	[4ff
.	16e-	.	.
.	16d	8f	.
.	16e-	.	.
.	16d	[4b-	16ff]
.	16e-	.	16gg
.	16d	.	16ff
.	16e-	.	16gg
=15	=15	=15	=15
1r	16c	8b-]	[4ee-
.	16d	.	.
.	16c	8e-	.
.	16d	.	.
.	16c	[4a	16ee-]
.	16d	.	16ff
.	16c	.	16ee-
.	16d	.	16ff
.	4B-	8a]	[4dd
.	.	8d	.
.	8A	[4g	16dd]
.	.	.	16ff
.	8G	.	16ee-
.	.	.	16dd
=16	=16	=16	=16
1r	4A	16g]	[4cc
.	.	16b-	.
.	.	16a	.
.	.	16cc	.
.	4d	4f#	16cc]
.	.	.	16ee-
.	.	.	16dd
.	.	.	16cc
.	8G	2g	16b-
.	.	.	16a
.	8A	.	16b-
.	.	.	16cc
.	8B-	.	16dd
.	.	.	16cc
.	8c	.	16b-
.	.	.	16cc
=17	=17	=17	=17
4D	4d	4f	16a
.	.	.	16g
.	.	.	16a
.	.	.	16b-
4E	8.c	16g	[4cc
.	.	16e	.
.	.	16f	.
.	16B-	16g	.
4F	4A	4c	16cc]
.	.	.	16a
.	.	.	16b-
.	.	.	16cc
4D	[4f	4r	16f
.	.	.	16a
.	.	.	16b
.	.	.	16cc#
=18	=18	=18	=18
8B-	8f]	1r	16dd
.	.	.	16ee
8B-	16e	.	16cc
.	16d	.	16dd
8B-	[4gM	.	16b-
.	.	.	16cc
8B-	.	.	16a
.	.	.	16b-
4E	16g]	.	4g
.	16a	.	.
.	16f	.	.
.	16g	.	.
8r	16e	.	8r
.	16f	.	.
8E	16d	.	8g
.	16e	.	.
=19	=19	=19	=19
8A	8c	1r	16cc
.	.	.	16dd
8A	16d	.	16b-
.	16e	.	16cc
8A	[4f	.	16a
.	.	.	16b-
8A	.	.	16g
.	.	.	16a
4D	16f]	.	4f
.	16g	.	.
.	16e	.	.
.	16f	.	.
8r	4d	.	16r
.	.	.	16cc
8B-	.	.	16dd
.	.	.	16ee
=20	=20	=20	=20
16A	8r	1r	4.ff
16B-	.	.	.
16A	8c	.	.
16B-	.	.	.
16A	[4f	.	.
16B-	.	.	.
16A	.	.	8ff
16B-	.	.	.
16G	8f]	.	4.bb-
16A	.	.	.
16G	8f	.	.
16A	.	.	.
16G	[4e	.	.
16A	.	.	.
16G	.	.	8bb-
16A	.	.	.
=21	=21	=21	=21
4F	16e]	1r	4aa
.	16A	.	.
.	16B	.	.
.	16c#	.	.
8E	[4d	.	16r
.	.	.	16dd
8D	.	.	16ee
.	.	.	16ff
4E	16d]	.	[4gg
.	16d	.	.
.	16c#	.	.
.	16B	.	.
4A	4c#	.	16gg]
.	.	.	16gg
.	.	.	16ff
.	.	.	16ee
=22	=22	=22	=22
4.D	16d	1r	[4ff
.	16F	.	.
.	16G	.	.
.	16A	.	.
.	[4B-	.	16ff]
.	.	.	16b-
8G	.	.	16cc
.	.	.	16dd
4C	16B-]	.	[4ee-
.	16B-	.	.
.	16A	.	.
.	16G	.	.
4F	[4A	.	16ee-]
.	.	.	16ee-
.	.	.	16dd
.	.	.	16cc
=23	=23	=23	=23
4.BB-	16A]	1r	[4dd
.	16F	.	.
.	16B-	.	.
.	16A	.	.
.	[4G	.	16dd]
.	.	.	16dd
8BB	.	.	16gg
.	.	.	16ff
8C	16G]	.	16ee-
.	16G	.	16ff
8BB-	16c	.	16ee-
.	16d	.	16dd
8AA	16e-	.	16cc
.	16d	.	16b-
8C	16c	.	16a
.	16B-	.	16g
=24	=24	=24	=24
8D	16A	1r	16f#
.	16G	.	16a
8C	16F#	.	16b-
.	16E	.	16cc
8BB-	16D	.	16dd
.	16C	.	16ee
8D	16BB-	.	16ff#
.	16AA	.	16dd
8E-	16GG	.	16gg
.	16G	.	16b-
8C	16A	.	16cc
.	16B-	.	16dd
8D	8.F#M	.	8.aM
8DD	.	.	.
.	16G	.	16g
=25	=25	=25	=25
4GG	16G	4g	8.g
.	16B-	.	.
.	[8e-	.	.
.	.	.	16b-
4r	16e-]	4a	8.cc
.	16c	.	.
.	16f	.	.
.	16e-	.	16cc
2r	8d	4b-	16dd
.	.	.	16ee-
.	8B-	.	16dd
.	.	.	16cc
.	16e-	4g	8b-
.	16f	.	.
.	16e-	.	[8gg
.	16d	.	.
=26	=26	=26	=26
1r	[4c	8ee-	16gg]
.	.	.	16gg
.	.	8ee-	16aa
.	.	.	16bb-
.	16c]	8ee-	16ccc
.	16c	.	16aa
.	16B-	8ee-	16bb-
.	16A	.	16ccc
.	16d	4a	8ff#
.	16c	.	.
.	16d	.	8aa
.	16e-	.	.
.	16d	8r	4dd
.	16e-	.	.
.	16d	8a	.
.	16c	.	.
=27	=27	=27	=27
1r	[4B-	8dd	16r
.	.	.	16gg
.	.	8dd	16bb-
.	.	.	16aa
.	16B-]	8dd	16gg
.	16G	.	16aa
.	16A	8dd	16gg
.	16B	.	16ff
.	16c	4g	16ee-
.	16d	.	16dd
.	16e-	.	8cc
.	16d	.	.
.	16c	8r	[4aa
.	16B-	.	.
.	16c	8ee-	.
.	16A	.	.
=28	=28	=28	=28
1r	8B-	16dd	4aa]
.	.	16ee-	.
.	8BB-	16dd	.
.	.	16ee-	.
.	16r	16dd	2gg
.	16E-	16ee-	.
.	16F	16dd	.
.	16G	16ee-	.
.	16AA	16cc	.
.	16BB-	16dd	.
.	16C	16cc	.
.	16AA	16dd	.
.	8D	16cc	4ff#
.	.	16dd	.
.	8DD	16cc	.
.	.	16dd	.
=29	=29	=29	=29
1r	16GG	4b-	8gg
.	16G	.	.
.	16A	.	[8dd
.	16B-	.	.
.	8F#	8a	16dd]
.	.	.	16cc
.	8G	8g	32b-
.	.	.	32a
.	.	.	32b-
.	.	.	32g
.	16r	4cc	8r
.	16E-	.	.
.	16D	.	[8gg
.	16C	.	.
.	8BB	4dd	16gg]
.	.	.	16aa-
.	8GG	.	16gg
.	.	.	16ff
=30	=30	=30	=30
1r	16C	4g	4ee-
.	16E-	.	.
.	16D	.	.
.	16F	.	.
.	16E-	8r	8r
.	16D	.	.
.	16E-	8g	8ee-
.	16C	.	.
.	16F	16a	2ee-
.	16A	16cc	.
.	16G	16b-	.
.	16B-	16dd	.
.	16A	16cc	.
.	16G	16b-	.
.	16A	16cc	.
.	16F	16a	.
=31	=31	=31	=31
1r	16B-	8b-	4dd
.	16d	.	.
.	16c	8f	.
.	16e-	.	.
.	16d	16b-	4r
.	16c	16cc	.
.	16d	16b-	.
.	16B-	16a	.
.	16e-	8g	2r
.	16f	.	.
.	16e-	8b-	.
.	16d	.	.
.	16c#	16a	.
.	16d	16b-	.
.	16B	16g	.
.	16c#	16a	.
=32	=32	=32	=32
1r	16d	16f	4dd
.	16c	16a	.
.	16B-	[8d	.
.	16A	.	.
.	16G	16d]	4ee
.	16E	16dd	.
.	16A	16cc#	.
.	16AA	32b	.
.	.	32cc#	.
.	4D	16dd	4ff
.	.	16ee	.
.	.	16cc	.
.	.	16dd	.
.	4r	16b-	4dd
.	.	16cc	.
.	.	16a	.
.	.	16b-	.
=33	=33	=33	=33
1r	1r	16g	8bb-
.	.	16d	.
.	.	16g	8bb-
.	.	16b-	.
.	.	16dd	8bb-
.	.	16b-	.
.	.	16g	8bb-
.	.	16b-	.
.	.	16cc	4ee
.	.	16g	.
.	.	16e	.
.	.	16g	.
.	.	16c	8r
.	.	16b-	.
.	.	16a	8ee
.	.	16g	.
=34	=34	=34	=34
1r	1r	16f	8aa
.	.	16c	.
.	.	16f	8aa
.	.	16a	.
.	.	16cc	8aa
.	.	16a	.
.	.	16f	8aa
.	.	16a	.
.	.	16b-	4dd
.	.	16f	.
.	.	16d	.
.	.	16f	.
.	.	16B-	8r
.	.	16b-	.
.	.	16a	8bb-
.	.	16g	.
=35	=35	=35	=35
1r	1r	16cc	16aa
.	.	16dd	16bb-
.	.	16f#	16aa
.	.	16dd	16bb-
.	.	16d	16aa
.	.	16dd	16bb-
.	.	16cc	16aa
.	.	16dd	16bb-
.	.	16b-	16gg
.	.	16dd	16aa
.	.	16g	16gg
.	.	16dd	16aa
.	.	16c	16gg
.	.	16cc	16aa
.	.	16b-	16gg
.	.	16cc	16aa
=36	=36	=36	=36
1r	1r	16a	[4ff
.	.	16cc	.
.	.	16f	.
.	.	16cc	.
.	.	16d	16ff]
.	.	16b-	16gg
.	.	16a	16ff
.	.	16b-	16gg
.	.	16g	4ee
.	.	16dd	.
.	.	16b-	.
.	.	16dd	.
.	.	16a	4aa
.	.	16cc	.
.	.	16g	.
.	.	16cc	.
=37	=37	=37	=37
1r	1r	16f#	4dd
.	.	16cc	.
.	.	16a	.
.	.	16cc	.
.	.	16g	8r
.	.	16b-	.
.	.	16f	8bb-
.	.	16b-	.
.	.	16e	4cc
.	.	16b-	.
.	.	16g	.
.	.	16b-	.
.	.	16f	4aa
.	.	16a	.
.	.	16e-	.
.	.	16a	.
=38	=38	=38	=38
1r	1r	16d	4b-
.	.	16a	.
.	.	16f	.
.	.	16a	.
.	.	16e-	4gg
.	.	16g	.
.	.	16d	.
.	.	16g	.
.	.	16c	8a
.	.	16g	.
.	.	16e-	8cc
.	.	16g	.
.	.	16d	8b-
.	.	16f#	.
.	.	16c	8a
.	.	16f#	.
=39	=39	=39	=39
1r	4G	16B-	8b-
.	.	16g	.
.	.	16f#	4ee-
.	.	16g	.
.	4A	16c	.
.	.	16g	.
.	.	16f#	16dd
.	.	16g	16cc
.	4B-	16d	8b-
.	.	16g	.
.	.	16f#	8a
.	.	16g	.
.	4G	16G	8b-
.	.	16g	.
.	.	16f#	8g
.	.	[16g	.
=40	=40	=40	=40
1r	8e-	16g]	4cc
.	.	16g	.
.	8e-	16a	.
.	.	16b	.
.	8e-	16cc	4r
.	.	16dd	.
.	8e-	16ee-	.
.	.	16cc	.
.	4A	8r	16ff
.	.	.	16gg
.	.	8c	16ff
.	.	.	16ee-
.	8r	[4f	16dd
.	.	.	16ee-
.	8A	.	16dd
.	.	.	16cc
=41	=41	=41	=41
1r	8d	16f]	4b-
.	.	16f	.
.	8d	16g	.
.	.	16a	.
.	8d	16b-	4r
.	.	16cc	.
.	8d	16dd	.
.	.	16b-	.
.	4G	16ee-	4r
.	.	16ff	.
.	.	16ee-	.
.	.	16dd	.
.	8r	16r	[4cc
.	.	16b-	.
.	8e-	16a	.
.	.	16g	.
=42	=42	=42	=42
1r	16d	8f	16cc]
.	16e-	.	8cc
.	16d	[8f	.
.	16e-	.	16cc
.	16d	16f]	[4b-
.	16e-	16g	.
.	16d	16f	.
.	16e-	16g	.
.	16c	8e-	16b-]
.	16d	.	8b-
.	16c	[8e-	.
.	16d	.	16b-
.	16c	16e-]	[4a
.	16d	16f	.
.	16c	16e-	.
.	16d	16f	.
=43	=43	=43	=43
1r	[4B-	4d	16a]
.	.	.	16b-
.	.	.	16a
.	.	.	16b-
.	16B-]	8r	[4g
.	16B-	.	.
.	16A-	8ee-	.
.	16G	.	.
.	[4A-	4cc	16g]
.	.	.	16a-
.	.	.	16g
.	.	.	16a-
.	16A-]	8r	8f
.	16A-	.	.
.	16G	8dd	[8ff
.	16F	.	.
=44	=44	=44	=44
1r	4G	4b	16ff]
.	.	.	16ee-
.	.	.	16dd
.	.	.	16ee-
.	8r	8r	16ff
.	.	.	32gg
.	.	.	32aa-
.	8BB	[8dd	16gg
.	.	.	16ff
.	16C	8dd]	8.ee-
.	16D	.	.
.	16E-	[8cc	.
.	16C	.	16ee-
.	16F	8cc]	16dd
.	16D	.	32ee-
.	.	.	32ff
.	16G	[8b-	16ee-
.	16D	.	16dd
=45	=45	=45	=45
1r	16E	8b-]	8.cc
.	16C	.	.
.	16F	[8a-	.
.	16C	.	16cc
.	16D	16a-]	8b-
.	16C	8a-	.
.	16D	.	8b-
.	16E	[16g	.
.	16F	8g]	8.a-
.	16G	.	.
.	16A-	[8f	.
.	16F	.	16a-
.	16c	8f]	16g
.	16C	.	16ee-
.	16E-	[8e-	16cc
.	16C	.	16b-
=46	=46	=46	=46
2r	[2F	8e-]	16a
.	.	.	16ff
.	.	8d	16b-
.	.	.	16gg
.	.	[4c	16ee-
.	.	.	32ff
.	.	.	32gg
.	.	.	16ff
.	.	.	16ee-
4BB-	4F]	8c]	16dd
.	.	.	16ff
.	.	4B-	16b-
.	.	.	16dd
4C	4E-	.	16ee-
.	.	.	16gg
.	.	8A	16cc
.	.	.	16ee-
=47	=47	=47	=47
4D	8D	16B-	8ff
.	.	16A	.
.	8F	16B-	8b-
.	.	16c	.
4BB-	16B-	8d	4r
.	16B-	.	.
.	16c	8r	.
.	16d	.	.
8G	8e-	16r	4r
.	.	16d	.
8G	8B-	16e-	.
.	.	16f	.
8G	[4e-	[4g	16r
.	.	.	16b-
8G	.	.	16cc
.	.	.	16dd
=48	=48	=48	=48
4C	4e-]	4g]	16ee-
.	.	.	16gg
.	.	.	16ee-
.	.	.	16b-
8r	8r	8r	16g
.	.	.	16b-
8C	[8e-	8g	16ee-
.	.	.	16gg
8F	8e-]	16a	8.ff
.	.	16f	.
8F	8d	[8b-	.
.	.	.	16gg
8F	4c	16b-]	8.ee-
.	.	16g	.
8F	.	8a	.
.	.	.	16ff
=49	=49	=49	=49
4BB-	16B-	4b-	8dd
.	16A	.	.
.	16B-	.	8ff
.	16c	.	.
8r	16d	8r	[4bb-
.	16c	.	.
8G	16d	8b-	.
.	16e-	.	.
16F	8f	4.cc	8bb-]
16G	.	.	.
16F	8c	.	16aa
16G	.	.	16gg
16F	[4f	.	8aa
16G	.	.	.
16F	.	8a	8dd
16G	.	.	.
=50	=50	=50	=50
16E-	8f]	8b-	4.gg
16F	.	.	.
16E-	8B-	16cc	.
16F	.	16dd	.
16E-	4e-	16cc	.
16F	.	16b-	.
16E-	.	16a	8cc
16F	.	16g	.
4D	16r	4f	4ff
.	16F	.	.
.	16G	.	.
.	16A	.	.
8C	16B-	4r	8r
.	16c	.	.
8BB-	16d	.	[8b-
.	16B-	.	.
=51	=51	=51	=51
4C	16e-	1r	8b-]
.	16d	.	.
.	16e-	.	16cc
.	16f	.	16dd
4F	16e-	.	8.aM
.	16f	.	.
.	16e-	.	.
.	16f	.	[16b-
[2BB-	8d	.	16b-]
.	.	.	8dd
.	8f	.	.
.	.	.	[16dd
.	8e-	.	16dd]
.	.	.	8cc
.	8d	.	.
.	.	.	16b-
=52	=52	=52	=52
4BB-]	16c	1r	16ee-
.	16B-	.	16dd
.	16c	.	16ee-
.	16d	.	16ff
4AA	8.c	.	8.ee-M
.	16B-	.	32dd
.	.	.	32ee-
4BB-	16B-	.	16dd
.	16r	.	16F
.	16r	.	16B-
.	16FF	.	16c
4r	16BB-	.	16d
.	16C	.	16e-
.	16D	.	16f
.	16E-	.	16g
=53	=53	=53	=53
4FF	16F	1r	16a
.	16C	.	16r
.	16F	.	16r
.	16G	.	16c
4r	16A	.	16f
.	16B-	.	16g
.	16c	.	16a
.	16d	.	16b-
4C	16e-	.	16cc
.	16r	.	16g
.	16r	.	16cc
.	16G	.	16dd
4r	16c	.	16ee-
.	16d	.	16ff
.	16e-	.	16gg
.	16f	.	16aa
=54	=54	=54	=54
4GG	16g	1r	8.bb-
.	16d	.	.
.	16g	.	.
.	16a	.	16aa
4r	16b-	.	16gg
.	16a	.	16ff
.	16g	.	16ee
.	16f	.	16dd
4AA	16e	.	16cc#
.	16f	.	16aa
.	16e	.	16gg
.	16d	.	16ff
4r	8.c#M	.	8.eeM
.	16d	.	16dd
=55	=55	=55	=55
8.DD	4d	4d	4dd
16d	.	.	.
16c#	8r	4e	4r
16d	.	.	.
16B	8d	.	.
16c#	.	.	.
16A	16c#	4f	2r
16B-	16d	.	.
16G	16B	.	.
16A	16c#	.	.
16F	16A	4d	.
16G	16B-	.	.
16E	16G	.	.
16F	16A	.	.
=56	=56	=56	=56
16D	16F	8b-	4r
16E	16G	.	.
16C	16E	8b-	.
16D	16F	.	.
16BB-	8D	8b-	2dd
16C	.	.	.
16AA	8F	8b-	.
16BB-	.	.	.
8GG	16B-	4e	.
.	16A	.	.
8EE	16G	.	.
.	16F	.	.
4AA	16E	8r	4cc#
.	16A	.	.
.	16G	8e	.
.	16A	.	.
=57	=57	=57	=57
4DD	16F	8a	8.dd
.	16G	.	.
.	16F	8a	.
.	16E	.	16ee
4r	16D	8a	[4ff
.	16d	.	.
.	16c	8a	.
.	16d	.	.
2r	16B-	4d	16ff]
.	16c	.	16aa
.	16B-	.	16gg
.	16A	.	16bb-
.	16G	8r	8.ee
.	16c	.	.
.	16B-	8b-	.
.	16c	.	[16ff
=58	=58	=58	=58
1r	4F	16a	8ff]
.	.	16b-	.
.	.	16a	8cc
.	.	16b-	.
.	8r	16a	2ff
.	.	16b-	.
.	8f	16a	.
.	.	16b-	.
.	4B	16g	.
.	.	16a	.
.	.	16g	.
.	.	16a	.
.	4c#	16g	[4ee
.	.	16a	.
.	.	16g	.
.	.	16a	.
=59	=59	=59	=59
1r	16d	4.f	8ee]
.	16e	.	.
.	16c	.	8a
.	16d	.	.
.	16B-	.	2dd
.	16c	.	.
.	16A	8b-	.
.	16B-	.	.
.	16G	2e	.
.	16A	.	.
.	16F	.	.
.	16G	.	.
.	16E	.	4cc#
.	16A	.	.
.	16G	.	.
.	16A	.	.
=60	=60	=60	=60
1r	4D	4d	16dd
.	.	.	32ff
.	.	.	32ee-
.	.	.	32dd
.	.	.	32ee-
.	.	.	16ff
.	16r	8r	4b-
.	32d	.	.
.	32c	.	.
.	32B-	8f	.
.	32c	.	.
.	16d	.	.
.	4E-	4g	16r
.	.	.	32gg
.	.	.	32ff
.	.	.	32ee-
.	.	.	32ff
.	.	.	16gg
.	16r	8r	4cc
.	32e	.	.
.	32d	.	.
.	32c	8g	.
.	32d	.	.
.	16e	.	.
=61	=61	=61	=61
1r	4F	4a	16r
.	.	.	32aa
.	.	.	32gg
.	.	.	32ff
.	.	.	32gg
.	.	.	16aa
.	16r	8r	4dd
.	32f#	.	.
.	32e	.	.
.	32d	8a	.
.	32e	.	.
.	16f#	.	.
.	8G	[4b-	16r
.	.	.	16dd
.	16g	.	16ee-
.	16f	.	16dd
.	16e	16b-]	[4cc
.	16g	16b-	.
.	16e	16cc	.
.	16c	16b-	.
=62	=62	=62	=62
1r	16f	[4a	16cc]
.	16F	.	16cc
.	16f	.	16dd
.	16e-	.	16cc
.	16d	16a]	[4b-
.	16f	16a	.
.	16d	16b-	.
.	16B-	16a	.
.	16e-	[4g	16b-]
.	16E-	.	16b-
.	16e-	.	16cc
.	16d	.	16b-
.	16c	16g]	[4a
.	16e-	16g	.
.	16c	16a	.
.	16A	16g	.
=63	=63	=63	=63
1r	4d	8.f#	16a]
.	.	.	16b-
.	.	.	16a
.	.	16g	16b-
.	16r	8a	4cc
.	16F#	.	.
.	16E	[8a	.
.	16F#	.	.
.	16G	8a]	4b-
.	16D	.	.
.	16BB-	[8g	.
.	32AA	.	.
.	32BB-	.	.
.	8C	16g]	4a
.	.	16f#	.
.	8D	16e	.
.	.	16f#	.
=64	=64	=64	=64
4GG	16GG	4g	4g
.	16BB-	.	.
.	16D	.	.
.	16G	.	.
4AA	4F#	16r	4r
.	.	32A	.
.	.	32B-	.
.	.	16c	.
.	.	16e-	.
4BB-	4G	4d	16r
.	.	.	16g
.	.	.	16b-
.	.	.	16dd
4GG	8r	8r	16gg
.	.	.	16ff
.	8B	8g	16ee-
.	.	.	16dd
=65	=65	=65	=65
8E-	16c	4g	4cc
.	16G	.	.
8E-	16c	.	.
.	16e-	.	.
8E-	16g	4r	4r
.	16f	.	.
8E-	16e-	.	.
.	16d	.	.
4AA	4c	4r	16r
.	.	.	16f
.	.	.	16a
.	.	.	16cc
8r	8r	8r	16ff
.	.	.	16ee-
8AA	8e-	8f	16dd
.	.	.	16cc
=66	=66	=66	=66
8D	16d	4f	4b-
.	16F	.	.
8D	16B-	.	.
.	16d	.	.
8D	16f	4r	4r
.	16e-	.	.
8D	16d	.	.
.	16c	.	.
4GG	16B	8r	16r
.	16d	.	16ff
.	16c	8g	16ee-
.	16B	.	16dd
8r	4c	4g	8ee-
8E-	.	.	8cc
=67	=67	=67	=67
16D	8r	8r	8r
16E-	.	.	.
16D	8d	8f	8b
16E-	.	.	.
16D	4d	4f	4b
16E-	.	.	.
16D	.	.	.
16E-	.	.	.
16C	8r	8r	8r
16D	.	.	.
16C	8G	8g	8ee-
16D	.	.	.
16C	4c	4g	4ee-
16D	.	.	.
16C	.	.	.
16D	.	.	.
=68	=68	=68	=68
4BB-	8r	8r	8r
.	8d	[8g	8dd
8AA-	[4e-	8g]	[4gg
8GG	.	16a	.
.	.	16b	.
2AA-	8e-]	2cc	8gg]
.	8c	.	16ff
.	.	.	16ee
.	8f	.	[4ff
.	16g	.	.
.	16a-	.	.
=69	=69	=69	=69
1GG	8d	4b	8ff]
.	16e-	.	16ee-
.	16f	.	16dd
.	8g	8cc	16ee-
.	.	.	16ff
.	8f	8b	16dd
.	.	.	16ee-
.	16e	8b-	16cc#
.	16g	.	16ee
.	16e	8b-	16cc#
.	16g	.	16ee
.	16e	8b-	16cc#
.	16g	.	16ee
.	16e	8b-	16cc#
.	16g	.	16ee
=70	=70	=70	=70
[2DD	16f#	8a	16dd
.	16d	.	16ff#
.	16f#	8a	16dd
.	16d	.	16ff#
.	16e	16g	16cc#
.	16g	16b-	16ee
.	16f#	16a	16dd
.	16e	16g	16cc#
16DD]	8f#	8a	8dd
16AA	.	.	.
16GG	8r	8r	8r
16AA	.	.	.
16FF#	4r	4r	4r
16D	.	.	.
16C#	.	.	.
16D	.	.	.
=71	=71	=71	=71
16AA	1r	1r	1r
16F#	.	.	.
16E	.	.	.
16F#	.	.	.
16D	.	.	.
16A	.	.	.
16G	.	.	.
16A	.	.	.
16F#	.	.	.
16d	.	.	.
16c	.	.	.
16d	.	.	.
16G	.	.	.
16B-	.	.	.
16A	.	.	.
32c	.	.	.
32B	.	.	.
=72	=72	=72	=72
2c	2r	2r	32r
.	.	.	32a-
.	.	.	32b-
.	.	.	32cc
.	.	.	32dd-
.	.	.	32ee-
.	.	.	32ff
.	.	.	32gg
.	.	.	32aa-
.	.	.	32ee-
.	.	.	32cc
.	.	.	32ee-
.	.	.	32a-
.	.	.	32e-
.	.	.	32c
.	.	.	32e-
8CC	8A 8d	8a	8dd 8ff#
8r	8r	8r	32r
.	.	.	32bb-
.	.	.	32aa
.	.	.	32gg
4r	4r	4r	32aa
.	.	.	32gg
.	.	.	32ff#
.	.	.	32ee
.	.	.	32dd
.	.	.	32cc
.	.	.	32b-
.	.	.	32a
=73	=73	=73	=73
1r	1r	1r	32cc
.	.	.	32dd
.	.	.	32ee-
.	.	.	32dd
.	.	.	32cc
.	.	.	32b-
.	.	.	32a
.	.	.	32g
.	.	.	32f#
.	.	.	32g
.	.	.	32a
.	.	.	32b-
.	.	.	32g
.	.	.	32a
.	.	.	32b-
.	.	.	32cc
.	.	.	32a
.	.	.	32b-
.	.	.	32cc
.	.	.	32dd
.	.	.	32b-
.	.	.	32cc
.	.	.	32dd
.	.	.	32ee-
.	.	.	32cc
.	.	.	32dd
.	.	.	32ee
.	.	.	32ff#
.	.	.	32gg
.	.	.	32aa
.	.	.	32bb-
.	.	.	32ff#
=74	=74	=74	=74
4r	4r	16r	[2gg
.	.	16ff	.
.	.	16ee-	.
.	.	16dd	.
8r	16r	4cc#	.
.	16b-	.	.
8EE	16a	.	.
.	16g	.	.
2DD	2a	4.dd	16gg]
.	.	.	16aa
.	.	.	32bb-
.	.	.	32aa
.	.	.	32bb-
.	.	.	32ccc
.	.	.	8.ff#
.	.	[8cc	.
.	.	.	16gg
=75	=75	=75	=75
[1GG	[4g	16cc]	[2gg
.	.	16ee-	.
.	.	16dd	.
.	.	16cc	.
.	16g]	[4b	.
.	16a-	.	.
.	16g	.	.
.	16f	.	.
.	4e	16b]	4gg_
.	.	16g	.
.	.	16a	.
.	.	16b	.
.	[4e-	16cc	16gg]
.	.	16dd	16bb-
.	.	16cc	16aa
.	.	16b-	16gg
*	*	*	*^
=76	=76	=76	=76	=76
1GG_	16e-]	4a	4ff#	4r
.	16e-	.	.	.
.	16d	.	.	.
.	16c	.	.	.
.	32B	[4g	4ff	[4dd
.	32c	.	.	.
.	32d	.	.	.
.	32c	.	.	.
.	32B	.	.	.
.	32c	.	.	.
.	32A	.	.	.
.	32B	.	.	.
.	16c	4g]	4ee	8dd]
.	16B-	.	.	.
.	16A	.	.	[8cc
.	16G	.	.	.
.	32F#	4a	[4ee-	4cc_
.	32G	.	.	.
.	32A	.	.	.
.	32G	.	.	.
.	32F#	.	.	.
.	32G	.	.	.
.	32E	.	.	.
.	32F#	.	.	.
=77	=77	=77	=77	=77
1GG]	1G	8g	16ee-]	8.cc]
.	.	.	16ee-	.
.	.	16f	[8dd	.
.	.	16e-	.	16cc
.	.	8d	16dd]	8b
.	.	.	16dd	.
.	.	8c	16ee	8a
.	.	.	32gg	.
.	.	.	32ff#	.
.	.	2d	2gg	2b
==	==	==	==	==
*-	*-	*-	*-	*-
!!!ENC: Peter van Kranenburg (peter@musical-style-recognition.net)
!!!END: 2006-11-9
